X:95
T:Geraldine's Wedding
R:reel
C: 2000, 2010 L.E. McCullough  
M:4/4
L:1/8
K:G
z6 DE|:~G3G ~G2DE|G~A3 B2GA|B~g3 ed (3Bcd|e~B3 A2GE|
~G3G ~G2DE|G~A3 B2GA|B~g3 agbg|1 edBA G2DE:|2 edBA G2GA|]
|:B~d3 A~D3|B~D3 ~A3F|~G3A BGge|d~B3 ABEF|
~G3G ~G2DE|G~A3 B2GA|B~g3 edba|1gedB G2GA:|2 gedB G2DE|]
<end>
<start>
